public/images/logo.svg

<svg width="1264" height="240" viewBox="0 0 1264 240" fill="none" xmlns="http://www.w3.org/2000/svg">
<g clip-path="url(#clip0_1782_25152)">
<mask id="mask0_1782_25152" style="mask-type:luminance" maskUnits="userSpaceOnUse" x="0" y="0" width="1264" height="240">
<path d="M0 -7.15256e-06H1264V240H0V-7.15256e-06Z" fill="white"/>
</mask>
<g mask="url(#mask0_1782_25152)">
<path d="M111.649 97.578C93.8625 93.1833 91.0171 91.3167 91.0171 87.582C91.0171 82.118 97.5865 80.1807 103.206 80.1807C119.156 80.1807 120.358 87.4887 120.812 90.2407L121.373 93.65H167.024L166.821 89.3847C166.332 79.1487 160.317 45.746 103.361 45.746C65.1291 45.746 40.4238 64.3807 40.4238 93.2167C40.4238 113.939 54.2385 125.558 89.7025 134.653C110.613 140.015 110.613 143.407 110.613 146.687C110.613 148.725 110.613 154.927 94.2345 154.927C81.8718 154.927 74.8505 150.573 73.3611 141.983L72.7785 138.607H26.2305L26.6065 143.021C28.4038 164.33 41.2771 189.73 92.3811 189.73C135.048 189.73 161.552 171.354 161.552 141.771C161.552 119.202 147.096 106.401 111.649 97.578Z" fill="black"/>
<path d="M308.191 134.33H259.53L258.446 136.717C253.051 148.594 246.378 153.44 235.415 153.44C222.152 153.44 216.236 145.884 216.236 128.94C216.236 110.581 224.67 81.4545 247.308 81.4545C261.056 81.4545 264.103 90.5345 264.238 98.1505L264.31 102.15H313.594L313.456 97.9478C312.415 65.7478 287.73 45.7465 249.032 45.7465C191.482 45.7465 165.27 88.9318 165.27 129.054C165.27 147.298 171.724 189.73 231.494 189.73C270.643 189.73 297.35 171.902 306.694 139.529L308.191 134.33Z" fill="black"/>
<path d="M388.796 103.984H369.136L373.199 84.4938H393.753C404.837 84.4938 404.837 90.4364 404.837 92.6738C404.837 102.022 396.112 103.984 388.796 103.984ZM437.953 155.72C440.94 141.576 438.727 130.551 431.552 123.35C446.573 116.256 454.74 103.815 454.74 87.6911C454.74 64.0124 435.469 48.7111 405.643 48.7111H333.288L304.109 186.767H351.735L361.819 138.728H383.219C386.012 138.728 389.613 139.059 390.888 140.639C392.831 143.043 391.248 150.399 390.739 152.764C387.496 166.958 386.695 176.44 388.14 183.511L388.808 186.767H435.627L434.995 182.144C434.239 176.603 435.231 167.732 437.953 155.72Z" fill="black"/>
<path d="M520.707 124.7C526.814 112.838 531.946 102.526 535.94 94.1031C536.879 102.632 538.207 113.019 539.854 124.7H520.707ZM515.26 48.7111L436.203 186.767H487.518L501.796 161.914H544.9L548.599 186.767H597.396L573.415 48.7111H515.26Z" fill="black"/>
<path d="M688.716 98.7578H666.861L670.072 83.8351H692.268C702.357 83.8351 702.357 88.1644 702.357 90.4911C702.357 93.1751 702.357 98.7578 688.716 98.7578ZM678.48 151.827H655.644L659.505 133.5H682.81C695.246 133.5 695.246 139.422 695.246 141.366C695.246 146.799 693.216 151.827 678.48 151.827ZM732.41 115.767C744.922 109.364 751.928 98.4418 751.928 84.8458C751.928 61.8818 734.446 48.7111 703.968 48.7111H629.756L600.508 186.767H683.285C722.114 186.767 745.364 169.747 745.473 141.227C745.473 129.514 739.573 121.026 732.41 115.767Z" fill="black"/>
<path d="M744.551 186.767H792.916L822.163 48.7106H773.799L744.551 186.767Z" fill="black"/>
<path d="M830.298 48.7106L822.309 85.9906H863.41L842.135 186.767H890.503L911.661 85.9906H952.669L960.658 48.7106H830.298Z" fill="black"/>
</g>
<mask id="mask1_1782_25152" style="mask-type:luminance" maskUnits="userSpaceOnUse" x="913" y="48" width="325" height="139">
<path d="M988.376 48.7106L973.882 101.581H933.144L913.738 186.776H961.48C960.177 185.392 958.984 183.899 957.897 182.379C956.837 180.94 955.914 179.476 955.046 177.955C951.6 171.739 949.646 164.765 949.646 157.409C949.646 131.491 973.72 110.401 1003.28 110.401C1032.86 110.401 1056.91 131.491 1056.91 157.409C1056.91 164.765 1054.95 171.739 1051.5 177.955C1050.64 179.476 1049.71 180.94 1048.65 182.379C1047.57 183.899 1046.37 185.392 1045.07 186.776H1097.72C1096.42 185.392 1095.23 183.899 1094.14 182.379C1093.11 180.94 1092.16 179.476 1091.32 177.955C1087.85 171.739 1085.92 164.765 1085.92 157.409C1085.92 131.491 1109.97 110.401 1139.55 110.401C1169.1 110.401 1193.18 131.491 1193.18 157.409C1193.18 164.765 1191.22 171.739 1187.78 177.955C1186.91 179.476 1185.99 180.94 1184.93 182.379C1183.84 183.899 1182.65 185.392 1181.35 186.776H1237.77L1218.36 101.581H1177.63L1163.13 48.7106H988.376Z" fill="white"/>
</mask>
<g mask="url(#mask1_1782_25152)">
<path d="M1016.4 186.776H913.738V48.7106H1016.4V186.776Z" fill="#55A5ED"/>
<path d="M1018.92 186.776H1016.4V48.7106H1018.92V186.776Z" fill="#55A5ED"/>
<path d="M1021.43 186.776H1018.92V48.7106H1021.43V186.776Z" fill="#55A7EC"/>
<path d="M1023.95 186.776H1021.44V48.7106H1023.95V186.776Z" fill="#56A9EB"/>
<path d="M1026.47 186.776H1023.95V48.7106H1026.47V186.776Z" fill="#58ABE8"/>
<path d="M1028.98 186.776H1026.46V48.7106H1028.98V186.776Z" fill="#58ADE7"/>
<path d="M1031.5 186.776H1028.98V48.7106H1031.5V186.776Z" fill="#59AEE6"/>
<path d="M1034.01 186.776H1031.5V48.7106H1034.01V186.776Z" fill="#5AB0E5"/>
<path d="M1036.53 186.776H1034.01V48.7106H1036.53V186.776Z" fill="#5AB2E4"/>
<path d="M1039.04 186.776H1036.53V48.7106H1039.04V186.776Z" fill="#5DB4E1"/>
<path d="M1041.56 186.776H1039.04V48.7106H1041.56V186.776Z" fill="#5DB6E0"/>
<path d="M1044.07 186.776H1041.56V48.7106H1044.07V186.776Z" fill="#5EB7DF"/>
<path d="M1046.59 186.776H1044.07V48.7106H1046.59V186.776Z" fill="#5FB9DE"/>
<path d="M1049.11 186.776H1046.59V48.7106H1049.11V186.776Z" fill="#5FBBDD"/>
<path d="M1051.62 186.776H1049.11V48.7106H1051.62V186.776Z" fill="#60BCDB"/>
<path d="M1054.14 186.776H1051.62V48.7106H1054.14V186.776Z" fill="#61BEDA"/>
<path d="M1056.65 186.776H1054.14V48.7106H1056.65V186.776Z" fill="#61C0D9"/>
<path d="M1059.17 186.776H1056.65V48.7106H1059.17V186.776Z" fill="#62C1D8"/>
<path d="M1061.68 186.776H1059.17V48.7106H1061.68V186.776Z" fill="#63C3D7"/>
<path d="M1064.2 186.776H1061.68V48.7106H1064.2V186.776Z" fill="#64C4D6"/>
<path d="M1066.71 186.776H1064.2V48.7106H1066.71V186.776Z" fill="#65C6D4"/>
<path d="M1069.23 186.776H1066.71V48.7106H1069.23V186.776Z" fill="#66C7D3"/>
<path d="M1071.75 186.776H1069.23V48.7106H1071.75V186.776Z" fill="#66C9D2"/>
<path d="M1074.26 186.776H1071.75V48.7106H1074.26V186.776Z" fill="#67CAD1"/>
<path d="M1076.78 186.776H1074.26V48.7106H1076.78V186.776Z" fill="#68CCCF"/>
<path d="M1079.29 186.776H1076.78V48.7106H1079.29V186.776Z" fill="#69CDCE"/>
<path d="M1081.81 186.776H1079.29V48.7106H1081.81V186.776Z" fill="#69CFCD"/>
<path d="M1084.32 186.776H1081.81V48.7106H1084.32V186.776Z" fill="#6AD0CC"/>
<path d="M1086.84 186.776H1084.32V48.7106H1086.84V186.776Z" fill="#6BD2CB"/>
<path d="M1089.36 186.776H1086.84V48.7106H1089.36V186.776Z" fill="#6CD3C9"/>
<path d="M1091.87 186.776H1089.36V48.7106H1091.87V186.776Z" fill="#6DD4C8"/>
<path d="M1094.39 186.776H1091.87V48.7106H1094.39V186.776Z" fill="#6ED6C7"/>
<path d="M1096.9 186.776H1094.39V48.7106H1096.9V186.776Z" fill="#6DD7C7"/>
<path d="M1099.42 186.776H1096.9V48.7106H1099.42V186.776Z" fill="#6ED8C6"/>
<path d="M1101.93 186.776H1099.42V48.7106H1101.93V186.776Z" fill="#6FD9C4"/>
<path d="M1104.45 186.776H1101.93V48.7106H1104.45V186.776Z" fill="#70DCC3"/>
<path d="M1106.97 186.776H1104.45V48.7106H1106.97V186.776Z" fill="#71DDC2"/>
<path d="M1109.48 186.776H1106.96V48.7106H1109.48V186.776Z" fill="#70DEC2"/>
<path d="M1111.99 186.776H1109.48V48.7106H1111.99V186.776Z" fill="#71DFC1"/>
<path d="M1114.51 186.776H1112V48.7106H1114.51V186.776Z" fill="#72E0BF"/>
<path d="M1117.03 186.776H1114.51V48.7106H1117.03V186.776Z" fill="#73E2BE"/>
<path d="M1119.54 186.776H1117.02V48.7106H1119.54V186.776Z" fill="#72E3BE"/>
<path d="M1122.06 186.776H1119.54V48.7106H1122.06V186.776Z" fill="#74E4BD"/>
<path d="M1124.57 186.776H1122.06V48.7106H1124.57V186.776Z" fill="#75E5BC"/>
<path d="M1127.09 186.776H1124.57V48.7106H1127.09V186.776Z" fill="#74E6BB"/>
<path d="M1129.6 186.776H1127.09V48.7106H1129.6V186.776Z" fill="#75E7BA"/>
<path d="M1132.12 186.776H1129.61V48.7106H1132.12V186.776Z" fill="#76E8B9"/>
<path d="M1134.64 186.776H1132.12V48.7106H1134.64V186.776Z" fill="#76E9B9"/>
<path d="M1137.15 186.776H1134.63V48.7106H1137.15V186.776Z" fill="#77EAB8"/>
<path d="M1139.66 186.776H1137.15V48.7106H1139.66V186.776Z" fill="#78EBB6"/>
<path d="M1142.18 186.776H1139.66V48.7106H1142.18V186.776Z" fill="#77ECB6"/>
<path d="M1144.7 186.776H1142.18V48.7106H1144.7V186.776Z" fill="#78EDB5"/>
<path d="M1147.21 186.776H1144.7V48.7106H1147.21V186.776Z" fill="#78EEB5"/>
<path d="M1149.73 186.776H1147.21V48.7106H1149.73V186.776Z" fill="#79EEB4"/>
<path d="M1152.24 186.776H1149.73V48.7106H1152.24V186.776Z" fill="#79EFB4"/>
<path d="M1154.76 186.776H1152.24V48.7106H1154.76V186.776Z" fill="#7AF0B2"/>
<path d="M1157.27 186.776H1154.76V48.7106H1157.27V186.776Z" fill="#79F1B2"/>
<path d="M1159.79 186.776H1157.27V48.7106H1159.79V186.776Z" fill="#7AF2B1"/>
<path d="M1162.31 186.776H1159.79V48.7106H1162.31V186.776Z" fill="#7AF2B1"/>
<path d="M1164.82 186.776H1162.3V48.7106H1164.82V186.776Z" fill="#7CF3B0"/>
<path d="M1167.34 186.776H1164.82V48.7106H1167.34V186.776Z" fill="#7BF4B0"/>
<path d="M1169.85 186.776H1167.34V48.7106H1169.85V186.776Z" fill="#7CF5AE"/>
<path d="M1172.37 186.776H1169.85V48.7106H1172.37V186.776Z" fill="#7CF5AE"/>
<path d="M1174.88 186.776H1172.37V48.7106H1174.88V186.776Z" fill="#7DF6AD"/>
<path d="M1177.4 186.776H1174.88V48.7106H1177.4V186.776Z" fill="#7DF6AD"/>
<path d="M1179.91 186.776H1177.4V48.7106H1179.91V186.776Z" fill="#7DF7AD"/>
<path d="M1182.43 186.776H1179.91V48.7106H1182.43V186.776Z" fill="#7EF8AC"/>
<path d="M1184.95 186.776H1182.43V48.7106H1184.95V186.776Z" fill="#7EF8AC"/>
<path d="M1187.46 186.776H1184.95V48.7106H1187.46V186.776Z" fill="#7FF9AA"/>
<path d="M1189.98 186.776H1187.46V48.7106H1189.98V186.776Z" fill="#7FF9AA"/>
<path d="M1192.49 186.776H1189.98V48.7106H1192.49V186.776Z" fill="#7EFAAA"/>
<path d="M1195.01 186.776H1192.49V48.7106H1195.01V186.776Z" fill="#7EFAAA"/>
<path d="M1197.52 186.776H1195.01V48.7106H1197.52V186.776Z" fill="#80FAA9"/>
<path d="M1200.04 186.776H1197.52V48.7106H1200.04V186.776Z" fill="#7FFBA9"/>
<path d="M1202.56 186.776H1200.04V48.7106H1202.56V186.776Z" fill="#7FFBA9"/>
<path d="M1205.07 186.776H1202.55V48.7106H1205.07V186.776Z" fill="#7FFCA9"/>
<path d="M1207.59 186.776H1205.07V48.7106H1207.59V186.776Z" fill="#80FCA8"/>
<path d="M1210.1 186.776H1207.59V48.7106H1210.1V186.776Z" fill="#80FCA8"/>
<path d="M1212.62 186.776H1210.1V48.7106H1212.62V186.776Z" fill="#80FDA7"/>
<path d="M1215.13 186.776H1212.62V48.7106H1215.13V186.776Z" fill="#80FDA7"/>
<path d="M1217.64 186.776H1215.13V48.7106H1217.64V186.776Z" fill="#80FDA7"/>
<path d="M1220.16 186.776H1217.64V48.7106H1220.16V186.776Z" fill="#80FDA6"/>
<path d="M1222.68 186.776H1220.16V48.7106H1222.68V186.776Z" fill="#80FDA6"/>
<path d="M1225.2 186.776H1222.68V48.7106H1225.2V186.776Z" fill="#80FFA6"/>
<path d="M1227.71 186.776H1225.19V48.7106H1227.71V186.776Z" fill="#80FFA6"/>
<path d="M1230.22 186.776H1227.71V48.7106H1230.22V186.776Z" fill="#80FFA6"/>
<path d="M1232.74 186.776H1230.23V48.7106H1232.74V186.776Z" fill="#80FFA6"/>
<path d="M1235.25 186.776H1232.74V48.7106H1235.25V186.776Z" fill="#80FFA6"/>
<path d="M1237.77 186.776H1235.25V48.7106H1237.77V186.776Z" fill="#80FFA6"/>
</g>
<path d="M1046.86 157.413C1046.86 164.416 1044.49 171.254 1040.02 177.138C1038.9 178.672 1037.66 180.04 1036.25 181.406C1034.71 182.941 1033.02 184.349 1031.15 185.674C1023.32 191.186 1013.45 194.253 1003.26 194.253C993.106 194.253 983.203 191.186 975.412 185.674C973.548 184.349 971.848 182.941 970.272 181.406C968.864 180.04 967.622 178.63 966.544 177.138C962.068 171.254 959.707 164.416 959.707 157.413C959.707 137.108 979.267 120.572 1003.26 120.572C1027.3 120.572 1046.86 137.108 1046.86 157.413Z" fill="black"/>
<path d="M1139.56 120.572C1115.52 120.572 1095.96 137.106 1095.96 157.413C1095.96 164.416 1098.33 171.254 1102.8 177.138C1103.92 178.63 1105.16 180.04 1106.57 181.406C1108.06 182.898 1109.76 184.349 1111.63 185.674C1119.46 191.186 1129.36 194.253 1139.56 194.253C1149.71 194.253 1159.62 191.186 1167.41 185.674C1169.23 184.39 1170.93 182.982 1172.5 181.406C1173.91 180.04 1175.16 178.63 1176.28 177.138C1180.75 171.254 1183.11 164.416 1183.11 157.413C1183.11 137.106 1163.55 120.572 1139.56 120.572Z" fill="black"/>
<path d="M1183.11 157.413C1183.11 164.416 1180.75 171.254 1176.28 177.138C1175.16 178.63 1173.91 180.04 1172.5 181.406C1170.93 182.982 1169.23 184.39 1167.41 185.674C1159.62 191.186 1149.71 194.253 1139.56 194.253C1129.36 194.253 1119.46 191.186 1111.63 185.674C1109.76 184.349 1108.06 182.898 1106.57 181.406C1105.16 180.04 1103.92 178.63 1102.8 177.138C1098.33 171.254 1095.96 164.416 1095.96 157.413C1095.96 137.108 1115.52 120.572 1139.56 120.572C1163.55 120.572 1183.11 137.108 1183.11 157.413Z" fill="black"/>
</g>
<defs>
<clipPath id="clip0_1782_25152">
<rect width="1264" height="240" fill="white"/>
</clipPath>
</defs>
</svg>

<svg id="Шар_1" data-name="Шар 1" xmlns="http://www.w3.org/2000/svg" xmlns:xlink="http://www.w3.org/1999/xlink" viewBox="0 0 1264 240">
  <defs>
    <style>
      .cls-1 {
        fill: #fff;
      }

      .cls-2 {
        mask: url(#mask);
      }

      .cls-3 {
        fill: url(#Градієнт_без_назви_7);
      }
    </style>
    <mask id="mask" x="0" y="0" width="1264" height="240" maskUnits="userSpaceOnUse">
      <g id="mask0_2488_25001" data-name="mask0 2488 25001">
        <path class="cls-1" d="M0,0H1264V240H0Z"/>
      </g>
    </mask>
    <linearGradient id="Градієнт_без_назви_7" data-name="Градієнт без назви 7" x1="913.74" y1="117.74" x2="1237.77" y2="117.74" gradientUnits="userSpaceOnUse">
      <stop offset="0.23" stop-color="#55a5ed"/>
      <stop offset="0.6" stop-color="#93eacf"/>
      <stop offset="1" stop-color="#80ffa6"/>
    </linearGradient>
  </defs>
  <g>
    <g class="cls-2">
      <g>
        <path d="M111.65,97.58C93.86,93.18,91,91.32,91,87.58c0-5.46,6.56-7.4,12.19-7.4,15.94,0,17.15,7.31,17.6,10.06l.56,3.41H167l-.2-4.27c-.49-10.23-6.5-43.63-63.46-43.63-38.23,0-62.94,18.63-62.94,47.47,0,20.72,13.82,32.34,49.28,41.43,20.91,5.37,20.91,8.76,20.91,12,0,2,0,8.24-16.38,8.24-12.36,0-19.38-4.36-20.87-13l-.58-3.37H26.23L26.6,143c1.8,21.31,14.68,46.71,65.78,46.71,42.67,0,69.17-18.38,69.17-48C161.55,119.2,147.09,106.4,111.65,97.58Z"/>
        <path d="M308.19,134.33H259.53l-1.08,2.39c-5.4,11.88-12.07,16.72-23,16.72-13.26,0-19.17-7.56-19.17-24.5,0-18.36,8.43-47.49,31.07-47.49,13.75,0,16.79,9.08,16.93,16.7l.07,4h49.28l-.13-4.2c-1-32.2-25.73-52.2-64.43-52.2-57.55,0-83.76,43.18-83.76,83.3,0,18.25,6.45,60.68,66.22,60.68,39.15,0,65.86-17.83,75.2-50.2Z"/>
        <path d="M388.79,104H369.13l4.07-19.49h20.55c11.08,0,11.08,6,11.08,8.18C404.83,102,396.11,104,388.79,104ZM438,155.72c3-14.14.78-25.17-6.4-32.37,15-7.09,23.19-19.53,23.19-35.66,0-23.68-19.27-39-49.1-39H333.29L304.11,186.77h47.62l10.09-48h21.4c2.79,0,6.39.33,7.67,1.91,1.94,2.4.36,9.76-.15,12.12-3.25,14.2-4.05,23.68-2.6,30.75l.67,3.26h46.82l-.64-4.63C434.24,176.6,435.23,167.73,438,155.72Z"/>
        <path d="M520.71,124.7c6.1-11.86,11.24-22.17,15.23-30.6.94,8.53,2.27,18.92,3.91,30.6Zm-5.45-76L436.2,186.77h51.32l14.28-24.86h43.1l3.7,24.86h48.8l-24-138.06Z"/>
        <path d="M688.71,98.76H666.86l3.21-14.92h22.19c10.09,0,10.09,4.32,10.09,6.65C702.35,93.18,702.35,98.76,688.71,98.76Zm-10.23,53.07H655.64l3.86-18.33h23.31c12.43,0,12.43,5.92,12.43,7.87C695.24,146.8,693.21,151.83,678.48,151.83Zm53.93-36.06c12.51-6.41,19.51-17.33,19.51-30.92,0-23-17.48-36.14-48-36.14H629.75L600.5,186.77h82.78c38.83,0,62.08-17,62.19-45.54A30.92,30.92,0,0,0,732.41,115.77Z"/>
        <path d="M744.55,186.77h48.36L822.16,48.71H773.79Z"/>
        <path d="M830.29,48.71,822.3,86h41.11L842.13,186.77H890.5L911.66,86h41l8-37.28Z"/>
      </g>
    </g>
    <path class="cls-3" d="M988.38,48.71l-14.5,52.87H933.14l-19.4,85.2h47.74a42.49,42.49,0,0,1-3.58-4.4,43.64,43.64,0,0,1-2.85-4.42,42.2,42.2,0,0,1-5.4-20.55c0-25.92,24.07-47,53.63-47s53.63,21.09,53.63,47A42.21,42.21,0,0,1,1051.5,178a43.64,43.64,0,0,1-2.85,4.42,42.49,42.49,0,0,1-3.58,4.4h52.65a43.83,43.83,0,0,1-3.58-4.4,45.13,45.13,0,0,1-2.82-4.42,42,42,0,0,1-5.4-20.55c0-25.92,24-47,53.63-47s53.63,21.09,53.63,47a42.31,42.31,0,0,1-5.4,20.55,45.45,45.45,0,0,1-2.85,4.42,43.83,43.83,0,0,1-3.58,4.4h56.42l-19.41-85.2h-40.73l-14.5-52.87Z"/>
    <path d="M1046.85,157.41a32.53,32.53,0,0,1-6.83,19.73,33.51,33.51,0,0,1-3.77,4.27,40.24,40.24,0,0,1-5.1,4.26,49.55,49.55,0,0,1-55.74,0,43.71,43.71,0,0,1-5.14-4.26,34.93,34.93,0,0,1-10.56-24c0-20.3,19.56-36.84,43.55-36.84S1046.85,137.11,1046.85,157.41Z"/>
    <path d="M1139.56,120.57c-24,0-43.6,16.54-43.6,36.84a32.46,32.46,0,0,0,6.84,19.73,36.49,36.49,0,0,0,3.77,4.27,39,39,0,0,0,5.06,4.26,49.62,49.62,0,0,0,55.78,0,38.43,38.43,0,0,0,5.09-4.26,36.49,36.49,0,0,0,3.77-4.27,32.46,32.46,0,0,0,6.84-19.73C1183.11,137.11,1163.55,120.57,1139.56,120.57Z"/>
    <path d="M1183.11,157.41a32.48,32.48,0,0,1-6.84,19.73,36.49,36.49,0,0,1-3.77,4.27,38.43,38.43,0,0,1-5.09,4.26,49.62,49.62,0,0,1-55.78,0,39,39,0,0,1-5.06-4.26,36.49,36.49,0,0,1-3.77-4.27,32.48,32.48,0,0,1-6.84-19.73c0-20.3,19.56-36.84,43.6-36.84S1183.11,137.11,1183.11,157.41Z"/>
  </g>
</svg>
